X:106
T:Newmarket Downfall. ThoH.106
Q:1/2=100
M:C
L:1/8
B:Thompson's Compleat Collection of 120 Favourite Hornpipes.
Z:Village Music Project, Simon Wilson 2016
O:England.
K:Eb
BA|G2BGF2AF|E2GE EDCB,|E2GE FAGF|[EG,]2[EG,]2[EG,]2BA|
G2BGF2AF|E2GE EDCB,|Cedc dBc=A|[BD]2[BD]2[BD]2||
Bd|f2f2f2Be|g2g2g2B2|c2ecB2eB|AGFE DcBA|
G2BGF2AF|E2GE EDCB,|CAGF GEFD|[EG,]2[EG,]2[EG,]2:|

